icons/linear-new-building-palace-bank-goverment.svg

<svg xmlns="http://www.w3.org/2000/svg" width="32px" height="32px" viewBox="0 0 32 32" version="1.1">
    <title>linear-new-building-palace-bank-goverment</title>
    <g id="linear-new-building-palace-bank-goverment" stroke-width="1" fill-rule="evenodd">
        <path d="M16.6,1.2 L28.6,10.2 C29.3688098,10.7766074 28.9610123,12 28,12 L26,12 L26,24 L27,24 C27.5522847,24 28,24.4477153 28,25 C28,25.5522847 27.5522847,26 27,26 L5,26 C4.44771525,26 4,25.5522847 4,25 C4,24.4477153 4.44771525,24 5,24 L6,24 L6,12 L4,12 C3.03898771,12 2.63119017,10.7766074 3.4,10.2 L15.4,1.2 C15.7555556,0.933333333 16.2444444,0.933333333 16.6,1.2 Z M12,12 L8,12 L8,24 L12,24 L12,12 Z M18,12 L14,12 L14,24 L18,24 L18,12 Z M24,12 L20,12 L20,24 L24,24 L24,12 Z M16,3.25 L7,10 L25,10 L16,3.25 Z M29,28 C29.5522847,28 30,28.4477153 30,29 C30,29.5522847 29.5522847,30 29,30 L3,30 C2.44771525,30 2,29.5522847 2,29 C2,28.4477153 2.44771525,28 3,28 L29,28 Z" id="&#24418;&#29366;" fill-rule="nonzero" />
    </g>
</svg>

<svg xmlns="http://www.w3.org/2000/svg" viewBox="0 0 32 32"><path fill="currentColor" d="m16.6 1.2 12 9c.769.577.361 1.8-.6 1.8h-2v12h1a1 1 0 0 1 0 2H5a1 1 0 0 1 0-2h1V12H4c-.961 0-1.369-1.223-.6-1.8l12-9a1 1 0 0 1 1.2 0M12 12H8v12h4zm6 0h-4v12h4zm6 0h-4v12h4zm-8-8.75L7 10h18zM29 28a1 1 0 0 1 0 2H3a1 1 0 0 1 0-2z"/></svg>
